src/images/icons/heart.svg

<svg fill="none" height="43" viewBox="0 0 48 43" width="48" xmlns="http://www.w3.org/2000/svg"><path d="m46.5056 9.03164c-1.0605-2.56076-2.8383-4.76056-5.1195-6.33472-2.2813-1.57417-4.9688-2.455633-7.7392-2.538351h-.5728c-3.2702.004344-6.4697.952331-9.2144 2.730171-2.7534-1.77853-5.9608-2.726372-9.2387-2.730171h-.5728c-2.7651.091842-5.44538.977241-7.72106 2.550551-2.27569 1.57331-4.05069 3.76811-5.11324 6.32252-1.1246877 2.59296-1.477969 5.45516-1.017525 8.24376s1.715085 5.3854 3.613625 7.4791l.12188.1219 18.34342 17.5024c.4286.3992.9926.6212 1.5783.6212.5858 0 1.1498-.222 1.5784-.6212l18.3556-17.5024.1219-.1219c1.8985-2.0937 3.1531-4.6905 3.6136-7.4791.4604-2.7886.1071-5.6508-1.0175-8.24376zm-5.9357 12.60266-16.7102 15.9301-16.71011-15.9301c-1.29449-1.4488-2.14664-3.2383-2.45553-5.1565-.3089-1.9182-.0616-3.8847.71261-5.6667.71263-1.76331 1.92539-3.27974 3.48896-4.36254s3.40967-1.6847 5.31097-1.73157h.4144c2.8251-.00794 5.5652.96574 7.7518 2.75455.3867.3252.87.51347 1.3748.53551.5048.02205 1.0027-.12337 1.4163-.41363l.134-.12188c2.1978-1.78439 4.9453-2.75333 7.7762-2.74236h.4266c1.9013.04687 3.7474.64877 5.3109 1.73157 1.5636 1.0828 2.7764 2.59923 3.489 4.36255.7703 1.7799 1.0166 3.7427.71 5.6577-.3065 1.9151-1.1533 3.7029-2.4407 5.1533z" fill="#1d1d1b"/></svg>

<svg width="48" height="43" viewBox="0 0 48 43" fill="none" xmlns="http://www.w3.org/2000/svg">
<path d="M46.5056 9.03164C45.4451 6.47088 43.6673 4.27108 41.3861 2.69692C39.1048 1.12275 36.4173 0.241287 33.6469 0.158569L33.0741 0.158569C29.8039 0.162913 26.6044 1.1109 23.8597 2.88874C21.1063 1.11021 17.8989 0.162368 14.621 0.158569L14.0482 0.158569C11.2831 0.250411 8.60282 1.13581 6.32714 2.70912C4.05145 4.28243 2.27645 6.47723 1.2139 9.03164C0.0892123 11.6246 -0.264069 14.4868 0.196375 17.2754C0.656819 20.064 1.91146 22.6608 3.81 24.7545L3.93188 24.8764L22.2753 42.3788C22.7039 42.778 23.2679 43 23.8536 43C24.4394 43 25.0034 42.778 25.432 42.3788L43.7876 24.8764L43.9095 24.7545C45.808 22.6608 47.0626 20.064 47.5231 17.2754C47.9835 14.4868 47.6302 11.6246 46.5056 9.03164ZM40.5699 21.6343L23.8597 37.5644L7.14959 21.6343C5.8551 20.1855 5.00295 18.396 4.69406 16.4778C4.38516 14.5596 4.63246 12.5931 5.40667 10.8111C6.1193 9.04779 7.33206 7.53136 8.89563 6.44856C10.4592 5.36576 12.3053 4.76386 14.2066 4.71699H14.621C17.4461 4.70905 20.1862 5.68273 22.3728 7.47154C22.7595 7.79674 23.2428 7.98501 23.7476 8.00705C24.2524 8.0291 24.7503 7.88368 25.1639 7.59342L25.2979 7.47154C27.4957 5.68715 30.2432 4.71821 33.0741 4.72918H33.5007C35.402 4.77605 37.2481 5.37795 38.8116 6.46075C40.3752 7.54355 41.588 9.05998 42.3006 10.8233C43.0709 12.6032 43.3172 14.566 43.0106 16.481C42.7041 18.3961 41.8573 20.1839 40.5699 21.6343Z" fill="#1D1D1B"/>
</svg>
